svg/fluentui-system-icons/ic_fluent_full_screen_maximize_16_filled.svg

<svg width="16" height="16" viewBox="0 0 16 16" fill="none" xmlns="http://www.w3.org/2000/svg">
<path d="M4 3.5C3.72386 3.5 3.5 3.72386 3.5 4V5.61364C3.5 6.02785 3.16421 6.36364 2.75 6.36364C2.33579 6.36364 2 6.02785 2 5.61364V4C2 2.89543 2.89543 2 4 2H5.61364C6.02785 2 6.36364 2.33579 6.36364 2.75C6.36364 3.16421 6.02785 3.5 5.61364 3.5H4ZM9.63636 2.75C9.63636 2.33579 9.97215 2 10.3864 2H12C13.1046 2 14 2.89543 14 4V5.61364C14 6.02785 13.6642 6.36364 13.25 6.36364C12.8358 6.36364 12.5 6.02785 12.5 5.61364V4C12.5 3.72386 12.2761 3.5 12 3.5H10.3864C9.97215 3.5 9.63636 3.16421 9.63636 2.75ZM2.75 9.63636C3.16421 9.63636 3.5 9.97215 3.5 10.3864V12C3.5 12.2761 3.72386 12.5 4 12.5H5.61364C6.02785 12.5 6.36364 12.8358 6.36364 13.25C6.36364 13.6642 6.02785 14 5.61364 14H4C2.89543 14 2 13.1046 2 12V10.3864C2 9.97215 2.33579 9.63636 2.75 9.63636ZM13.25 9.63636C13.6642 9.63636 14 9.97215 14 10.3864V12C14 13.1046 13.1046 14 12 14H10.3864C9.97215 14 9.63636 13.6642 9.63636 13.25C9.63636 12.8358 9.97215 12.5 10.3864 12.5H12C12.2761 12.5 12.5 12.2761 12.5 12V10.3864C12.5 9.97215 12.8358 9.63636 13.25 9.63636Z" fill="#212121"/>
</svg>

<svg xmlns="http://www.w3.org/2000/svg" width="16" height="16"><path d="M4 3.5a.5.5 0 0 0-.5.5v1.614a.75.75 0 0 1-1.5 0V4a2 2 0 0 1 2-2h1.614a.75.75 0 0 1 0 1.5H4Zm5.636-.75a.75.75 0 0 1 .75-.75H12a2 2 0 0 1 2 2v1.614a.75.75 0 0 1-1.5 0V4a.5.5 0 0 0-.5-.5h-1.614a.75.75 0 0 1-.75-.75ZM2.75 9.636a.75.75 0 0 1 .75.75V12a.5.5 0 0 0 .5.5h1.614a.75.75 0 0 1 0 1.5H4a2 2 0 0 1-2-2v-1.614a.75.75 0 0 1 .75-.75Zm10.5 0a.75.75 0 0 1 .75.75V12a2 2 0 0 1-2 2h-1.614a.75.75 0 1 1 0-1.5H12a.5.5 0 0 0 .5-.5v-1.614a.75.75 0 0 1 .75-.75Z"/></svg>
